!!!OTL: Der sterbende Krieger.
!!!OTL-incipit: LEBET WOHL, IHR LIEBEN ALLE
!!!ARE: Europa, Mitteleuropa, Deutschland, Westfalen
!!!SCT: Z1040
!!!TXL: @@DE
!!!YEM: Copyright 1995, estate of Helmut Schaffrath.
**kern	**text
*ICvox	*
*M3/4	*
*k[f#]	*
*G:	*
!LO:TX:a:t=Aus Weſtphalen.	!
!LO:TX:a:t=(Wahrſcheinlich Anſpielung auf den Tod des bei Saalfeld gefallenen Prinʒen Ludwig von Preußen.)	!
{8g	Le-
8a	-bet
=1	=1
4b/	wohl,
4b/	ihr
8cc/	Lie-
8ee/	-ben
=2	=2
8ee/L	al-
8ddJ	.
4dd/}	-le,
{8ee/	all'
8dd/	ihr
=3	=3
8dd/L	Lie-
8ccJ	.
4cc/	-ben
8dd/	le-
8cc/	-bet
=4	=4
4b/	wohl,
4r}	.
{8g	denn
8a	ich
=5	=5
4b/	muß
4b/	jetʒt
8cc/	e-
8ee/	-wig
=6	=6
8ee/L	mei-
8ddJ	.
4dd/}	-den,
{8ee/	was
8dd/	mir
=7	=7
8dd/L	war
8ccJ	.
4cc/	ſo
8dd/	ſüß
8cc/	und
=8	=8
4b/	hold;
4r}	.
{8b/	wollt
8dd/	ihr
=9	=9
8dd/L	mich
8ccJ	.
4cc/	noch
8a	ein-
8ee/	-mal
=10	=10
8ee/L	ſe-
8ddJ	.
4dd/}	-hen,
{8b/	ſtei-
8dd/	-get
=11	=11
8dd/L	auf
8ccJ	.
4cc/	die
8a	ho-
8ee/	-hen
=12	=12
8ee/L	Ber-
8ddJ	.
4dd/}	-ge,
{8g	ſchaut
8a	hin-
=13	=13
4b/	-ab
4b/	in's
8cc/	tie-
8ee/	-fe
=14	=14
(>8ee/L	Thal,
8ddJ	.
4dd/)}	.
{8ee/	ſchauet
8dd/	.
=15	=15
4cc/	mich
4cc/	ʒum
8dd/	letʒ-
8cc/	-ten
=16	=16
4b/	Mal.
4r}	.
==	==
!!!AGN: Romanze, Ballade, Tod (Prinz Ludwig von Preussen)
!!!ONB: ESAC (Essen Associative Code) Database: ZUCCAL
!!!AMT: simple triple
!!!AIN: vox
!!!EED: Helmut Schaffrath
!!!EEV: 1.0
!!@@COMMENT:"In original two voices"
!!@@END:
!!!RDF**kern: >= above
!!!GTL: I. Volks- Leuschen.
!!!URL-scan: https://www.digitale-sammlungen.de/de/view/bsb11160573?page=97
!!!ENC: Anna Maria Matuszewska
!!!EEV: 2025/03/02
*-	*-
